packages/katcn/src/icons/svg/coins.svg

<svg width="24" height="24" viewBox="0 0 24 24" fill="none" xmlns="http://www.w3.org/2000/svg">
<path d="M12.4 9.9C16.5 9.9 19.8 7.9 19.8 5.4C19.8 2.9 16.5 1 12.4 1C8.2 1 5 3 5 5.5C5 8 8.2 9.9 12.4 9.9ZM12.4 3C15.5 3 17.8 4.3 17.8 5.5C17.8 6.7 15.5 8 12.4 8C9.3 7.9 7 6.6 7 5.5C7 4.4 9.3 3 12.4 3Z" fill="black"/>
<path d="M18.9 9.7C18.4 9.4 17.8 9.6 17.5 10C17 11 15 11.9 12.4 11.9C9.69999 11.9 7.79999 11 7.19999 10C6.89999 9.6 6.29999 9.4 5.79999 9.7C5.29999 10 5.19999 10.6 5.49999 11.1C6.59999 12.8 9.29999 13.9 12.4 13.9C15.5 13.9 18.2 12.8 19.3 11.1C19.5 10.6 19.4 10 18.9 9.7Z" fill="black"/>
<path d="M18.9 14.2C18.4 13.9 17.8 14.1 17.5 14.5C16.9 15.4 15 16.4 12.3 16.4C9.70001 16.4 7.70001 15.5 7.10001 14.5C6.80001 14 6.20001 13.9 5.70001 14.2C5.20001 14.5 5.10001 15.1 5.40001 15.6C6.50001 17.3 9.20001 18.4 12.3 18.4C15.4 18.4 18.1 17.3 19.2 15.6C19.5 15.1 19.4 14.5 18.9 14.2Z" fill="black"/>
<path d="M18.9 18.8C18.4 18.5 17.8 18.7 17.5 19.1C17 20.1 15 21 12.4 21C9.79999 21 7.79999 20.1 7.19999 19.1C6.89999 18.6 6.29999 18.5 5.79999 18.8C5.29999 19.1 5.19999 19.7 5.49999 20.2C6.49999 21.9 9.19999 23 12.4 23C15.5 23 18.2 21.9 19.3 20.2C19.5 19.7 19.4 19.1 18.9 18.8Z" fill="black"/>
</svg>

<svg xmlns="http://www.w3.org/2000/svg" fill="none" viewBox="0 0 24 24"><path fill="#000" d="M12.4 9.9c4.1 0 7.4-2 7.4-4.5S16.5 1 12.4 1C8.2 1 5 3 5 5.5s3.2 4.4 7.4 4.4m0-6.9c3.1 0 5.4 1.3 5.4 2.5S15.5 8 12.4 8C9.3 7.9 7 6.6 7 5.5S9.3 3 12.4 3"/><path fill="#000" d="M18.9 9.7c-.5-.3-1.1-.1-1.4.3-.5 1-2.5 1.9-5.1 1.9-2.7 0-4.6-.9-5.2-1.9-.3-.4-.9-.6-1.4-.3s-.6.9-.3 1.4c1.1 1.7 3.8 2.8 6.9 2.8s5.8-1.1 6.9-2.8c.2-.5.1-1.1-.4-1.4m0 4.5c-.5-.3-1.1-.1-1.4.3-.6.9-2.5 1.9-5.2 1.9-2.6 0-4.6-.9-5.2-1.9-.3-.5-.9-.6-1.4-.3s-.6.9-.3 1.4c1.1 1.7 3.8 2.8 6.9 2.8s5.8-1.1 6.9-2.8c.3-.5.2-1.1-.3-1.4m0 4.6c-.5-.3-1.1-.1-1.4.3-.5 1-2.5 1.9-5.1 1.9s-4.6-.9-5.2-1.9c-.3-.5-.9-.6-1.4-.3s-.6.9-.3 1.4c1 1.7 3.7 2.8 6.9 2.8 3.1 0 5.8-1.1 6.9-2.8.2-.5.1-1.1-.4-1.4"/></svg>
